X:1
T:Title
%%score { ( 1 5 ) | ( 2 3 4 ) }
L:1/8
Q:1/4=100
M:4/4
K:Ab
V:1 bass nm="Grand Piano"
V:5 bass 
V:2 bass 
V:3 bass 
V:4 bass 
V:1
 [E,CE]2 [CE]2[K:treble] [CF][CG][CA][DB] | [CEc]4 [CA]4 | [A,FA]2 [FA]2 [FB][FA][EG][DF] | %3
w: Mrs.~T.~O.~Chisholm * * * * *|||
 [E,CE]6 z2 | [DE]2 [DF]2 [DG][DA][DB][Ec] | [DFd]4 [DB]4 | [B,=DB]2 [Dc]2 [B,DB][DF][DG][DA] | %7
w: ||||
 [B,DEGB]6 z2 | [CEc]2 [Ec]2 [Ec][CA][Fd][Fd] | [CEc]4 [CA]4 | [A,FA]2 [FA]2 [Fd][Fd][FA][=EB] | %11
w: ||||
 [CEc]6 z2 | _G2- [Ge]2 ecBA | [A,A]4 d4 | [CEc][Ec][CE][CA] [B,DB]2 [DB]2 | [CA]6 z2 | %16
w: |||||
 [Ec]2 [Ec]2 [Fd][Ec][DB][CA] | [Ec]4 [EA]4 | [Fd]2 [Fd]2 [Fd][Fd][FA][FB] | %19
w: |||
 c2- [Ec-][Ec-] [Ec]2 z2 | e2 e2 ecBA | A-[FA-][FA-][FA] d2- [=Ed]2 | z4 B2 B2 | [CA]6 z2 |] %24
w: |||||
V:2
 z2 E,2 F,G,A,B, | z4 A,4 | z2 A,2 B,A,G,F, | A,,4- A,,B,,C,D, | z2 F,2 G,A,B,C | z4 B,4 | %6
 z2 C2 z F,G,A, | E,,E,,G,,B,, E,D,C,B,, | z2[K:treble] C2 CA,DD | z4 A,4 | z2 A,2 DDA,B, | %11
 A,,2 A,2 A,,2 B,,2 | z4[K:treble] .E2 z2 | z[K:treble] FFF z2 =E2 | z C z A, z2 B,2 | %15
 [A,,E,A,]6 z2 | [A,,A,]2 [A,,A,]2 [A,,A,][A,,A,][A,,A,][A,,A,] | [A,,A,]4 [C,A,]4 | %18
 [D,A,]2 [D,A,]2 [D,A,][D,A,][D,A,][D,A,] | [A,,A,]2 [A,,A,][A,,A,] [A,,A,]2 z2 | [C,A,]4 [C,A,]4 | %21
 [D,D][D,D][D,D][D,D] [D,A,]2 [D,A,]2 | [E,A,E][E,A,E][E,A,C][E,A,C] .[E,A,D]2 .[E,F,D]2 | %23
 [A,,A,]6 z2 |] %24
V:3
 A,,8 | A,,8 | D,8 | x8 | x8 | G,8 | F,4 B,,4 | x8 | A,,8[K:treble] | A,,8 | D,8 | x8 | %12
 z2[K:treble] E2 _G-[CG-][B,G-][A,G] | z4[K:treble] D4 | E,2 E,2 E,,4 | x8 | x8 | x8 | x8 | x8 | %20
 x8 | x8 | x8 | x8 |] %24
V:4
 x8 | x8 | x8 | x8 | E,8- | E,8 | x8 | x8 | x2[K:treble] x6 | x8 | x8 | x8 | C,8[K:treble] | %13
 D,8[K:treble] | x8 | x8 | x8 | x8 | x8 | x8 | x8 | x8 | x8 | x8 |] %24
V:5
 x4[K:treble] x4 | x8 | x8 | x8 | x8 | x8 | x8 | x8 | x8 | x8 | x8 | x8 | [Ee]2 z2 z4 | %13
 .F2 z2 F2 z2 | x8 | x8 | x8 | x8 | x8 | E2 z2 z4 | _G4 G4 | .F2 z2 F2 z2 | ccEA z G, z G, | x8 |] %24

